flaticon/user-interface/style.svg

<svg xmlns="http://www.w3.org/2000/svg" width="32" height="32" viewBox="0 0 24 24">
    <path d="M 0 0 L 0 24 L 24 24 L 24 0 Z M 23.1875 23.1875 L 0.8125 23.1875 L 0.8125 0.8125 L 23.1875 0.8125 Z M 23.1875 23.1875"/>
    <path d="M 9.636719 10.992188 L 13.679688 13.304688 C 15.527344 14.359375 15.792969 16.25 15.457031 17.546875 C 15.132812 18.8125 14.019531 20.304688 11.949219 20.339844 L 11.859375 20.339844 C 9.839844 20.339844 8.199219 18.695312 8.199219 16.679688 C 8.199219 16.453125 8.015625 16.269531 7.792969 16.269531 C 7.566406 16.269531 7.386719 16.453125 7.386719 16.679688 C 7.386719 19.144531 9.390625 21.152344 11.859375 21.152344 L 11.960938 21.152344 C 14.042969 21.117188 15.722656 19.78125 16.246094 17.75 C 16.777344 15.675781 15.929688 13.65625 14.085938 12.597656 L 10.039062 10.289062 C 8.195312 9.234375 7.929688 7.34375 8.261719 6.046875 C 8.585938 4.777344 9.703125 3.289062 11.769531 3.253906 L 11.859375 3.253906 C 13.878906 3.253906 15.519531 4.894531 15.519531 6.914062 C 15.519531 7.140625 15.703125 7.320312 15.925781 7.320312 C 16.152344 7.320312 16.335938 7.140625 16.335938 6.914062 C 16.335938 4.449219 14.328125 2.441406 11.859375 2.441406 L 11.757812 2.441406 C 9.679688 2.476562 7.996094 3.808594 7.472656 5.84375 C 6.941406 7.917969 7.789062 9.9375 9.636719 10.992188 Z M 9.636719 10.992188"/>
</svg>

<svg xmlns="http://www.w3.org/2000/svg" width="32" height="32" viewBox="0 0 24 24">
    <path d="M0 0v24h24V0zm23.188 23.188H.813V.813h22.375zm0 0"/>
    <path d="M9.637 10.992l4.043 2.313c1.847 1.054 2.113 2.945 1.777 4.242-.324 1.265-1.437 2.758-3.508 2.793h-.09a3.665 3.665 0 0 1-3.66-3.66.407.407 0 0 0-.812 0 4.477 4.477 0 0 0 4.472 4.472h.102c2.082-.035 3.762-1.37 4.285-3.402.531-2.074-.316-4.094-2.16-5.152l-4.047-2.309C8.195 9.234 7.93 7.344 8.262 6.047c.324-1.27 1.441-2.758 3.508-2.793h.09c2.019 0 3.66 1.64 3.66 3.66 0 .227.183.406.406.406.226 0 .41-.18.41-.406a4.48 4.48 0 0 0-4.477-4.473h-.101C9.68 2.477 7.996 3.81 7.473 5.844c-.532 2.074.316 4.093 2.164 5.148zm0 0"/>
</svg>
